packages/icons/src/service-servicenow-inverse.svg

<svg fill="none" viewBox="0 0 24 24" xmlns="http://www.w3.org/2000/svg"><path clip-rule="evenodd" d="m12.06 1c-6.58569 0-11.760195 5.1745-11.760195 11.7602 0 3.4497 1.411235 6.5858 3.606475 8.781.78402.784 2.19524.784 3.13606.1568 1.25443-1.0976 3.13606-1.7248 5.01766-1.7248 2.0385 0 3.6065.6272 5.0177 1.7248.9409.784 2.1953.6272 3.1361-.3136 2.1952-2.1952 3.6065-5.1745 3.6065-8.6242-.1568-6.42889-5.3313-11.7602-11.7603-11.7602zm-.1568 17.8756c-3.60643 0-5.95849-2.6657-5.95849-5.9586 0-3.29283 2.35206-5.95848 5.95849-5.95848 3.6065 0 5.9586 2.66565 5.9586 5.95848 0 3.2929-2.3521 5.9586-5.9586 5.9586z" fill="#fafcff" fill-rule="evenodd"/></svg>

<svg viewBox="0 0 24 24" fill="none" xmlns="http://www.w3.org/2000/svg">
<path fill-rule="evenodd" clip-rule="evenodd" d="M12.06 1C5.47431 1 0.299805 6.1745 0.299805 12.7602C0.299805 16.2099 1.71104 19.346 3.90628 21.5412C4.6903 22.3252 6.10152 22.3252 7.04234 21.698C8.29677 20.6004 10.1784 19.9732 12.06 19.9732C14.0985 19.9732 15.6665 20.6004 17.0777 21.698C18.0186 22.482 19.273 22.3252 20.2138 21.3844C22.409 19.1892 23.8203 16.2099 23.8203 12.7602C23.6635 6.33131 18.489 1 12.06 1ZM11.9032 18.8756C8.29677 18.8756 5.94471 16.2099 5.94471 12.917C5.94471 9.62417 8.29677 6.95852 11.9032 6.95852C15.5097 6.95852 17.8618 9.62417 17.8618 12.917C17.8618 16.2099 15.5097 18.8756 11.9032 18.8756Z" fill="#FAFCFF"/>
</svg>
